X: 168
T: Black Cat In A Briar Patch
B: canberra pickers and fiddlers
B: old time tunes update
B: tunes
M:C|
L:1/8
R: Reel
Q: 1/4=100
K:G
V:1 
ef|g2B2 BcAc| dBGD G2Bc|dA[FA][DA] [F2A2]Bc|dA[FA][DA] G2ef|
g2B2 BcAc| dBGD G2Bc|d2A2FDEF|G2 [GB][GA] -[G2B2]:|
|:(3G,A,B,|C2 [CE][CD] e2c2|GcAG E2C2|B,2D2 BdBA|GBAG E(CC2)|
+slide+C2[CE][CD] e2c2|GcAG E2C2|B,2D2 BdBA|GAAB c2dB|[M:2/4]c2:||
% abcbook-tune_id 67a7d9ec176abb4b76d3394e
% abcbook-tune_composer_id 
% abcbook-link-0 https://www.youtube.com/watch?v=tiRP7PWu3b0
% abcbook-link-title-0 Black Cat In The Briar Patch
% abcbook-boost 0
% abcbook-difficulty 0
% abcbook-tags old time tunes
% abcbook-tablature 
% abcbook-transpose 
% abcbook-tuning GDAD
% abcbook-lastupdated 1739316997131
% abcbook-src-url 
% abcbook-soundfonts 
% abcbook-repeats 1


